icons/midnadark/apps/48/meld.svg

<svg xmlns="http://www.w3.org/2000/svg" viewBox="0 0 48 48"><defs><linearGradient gradientTransform="matrix(.43355 0 0 .43481 128.78-67.62)" gradientUnits="userSpaceOnUse" y2="154.58" x2="-111.09" y1="260.25" x1="-112.53" id="0"><stop stop-color="#197cf1"/><stop offset="1" stop-color="#20bcfa"/></linearGradient></defs><g transform="matrix(.99999 0 0 .99999-38.37 25.882)" enable-background="new"><rect y="-.801" x="58.37" height="47.851" width="48" fill="url(#0)" rx="3.752" stroke-width="1.042" transform="translate(-20-25)"/><g transform="matrix(1.26316 0 0 1.26316 32.06-32.19)" fill="#cdebfd"><path d="m28.694 10.506c-3.532.052-7.355.828-9.864 4.579-2.747 4.108-1.427 9.288 1.413 10.727 2.702 1.531 4.391-.343 3.757-1.812-.397 1.406-2.444 1.344-2.917-.912-.453-3.327 1.742-5.696 4.845-6.04 5.24-.572 9.33 4.624 9.749 9.522.582 7.738-4.04 13.988-11.06 16.425h17.382c.552 0 1-.448 1-1v-24.25c-1.158-1.314-2.698-2.82-4.234-3.842-2.988-1.99-6.54-3.454-10.07-3.402"/><path d="m19.733 36.942c3.532-.052 7.548-1.292 9.863-5.02 2.316-3.628 1.375-8.678-1.059-10.483-2.391-1.793-5.184.588-4.537 2.557.587-1.359 2.728-2.02 3.336.367.453 3.327-1.751 5.831-4.854 6.17-5.24.572-9.848-3.784-10.161-9.565-.504-9.329 5.376-14.847 11.679-15.972h-18c-.552 0-1 .448-1 1v23.792c1.158 1.314 3.108 2.868 4.644 3.891 2.988 1.989 6.557 3.311 10.09 3.259"/></g></g></svg>

<?xml version="1.0" encoding="UTF-8" standalone="no"?>
<!-- Created with Inkscape (http://www.inkscape.org/) -->

<svg
   xmlns:dc="http://purl.org/dc/elements/1.1/"
   xmlns:cc="http://creativecommons.org/ns#"
   xmlns:rdf="http://www.w3.org/1999/02/22-rdf-syntax-ns#"
   xmlns:svg="http://www.w3.org/2000/svg"
   xmlns="http://www.w3.org/2000/svg"
   xmlns:xlink="http://www.w3.org/1999/xlink"
   xmlns:sodipodi="http://sodipodi.sourceforge.net/DTD/sodipodi-0.dtd"
   xmlns:inkscape="http://www.inkscape.org/namespaces/inkscape"
   width="48"
   height="48"
   id="svg5453"
   version="1.1"
   inkscape:version="0.91 r13725"
   sodipodi:docname="meld.svg">
  <defs
     id="defs5455">
    <linearGradient
       gradientTransform="matrix(0.41607654,0,0,0.41728463,147.16236,-63.211073)"
       gradientUnits="userSpaceOnUse"
       y2="154.5808"
       x2="-111.09196"
       y1="260.25372"
       x1="-112.5251"
       id="linearGradient4212"
       xlink:href="#linearGradient4143"
       inkscape:collect="always" />
    <linearGradient
       inkscape:collect="always"
       id="linearGradient4143">
      <stop
         style="stop-color:#197cf1;stop-opacity:1"
         offset="0"
         id="stop4145" />
      <stop
         style="stop-color:#20bcfa;stop-opacity:1"
         offset="1"
         id="stop4147" />
    </linearGradient>
  </defs>
  <sodipodi:namedview
     id="base"
     pagecolor="#ffffff"
     bordercolor="#666666"
     borderopacity="1.0"
     inkscape:pageopacity="0"
     inkscape:pageshadow="2"
     inkscape:zoom="4"
     inkscape:cx="-48.363598"
     inkscape:cy="46.125"
     inkscape:document-units="px"
     inkscape:current-layer="g4219"
     showgrid="false"
     fit-margin-top="0"
     fit-margin-left="0"
     fit-margin-right="0"
     fit-margin-bottom="0"
     inkscape:window-width="1366"
     inkscape:window-height="634"
     inkscape:window-x="0"
     inkscape:window-y="36"
     inkscape:window-maximized="1"
     inkscape:showpageshadow="false"
     borderlayer="true"
     showguides="false">
    <inkscape:grid
       type="xygrid"
       id="grid4063" />
    <sodipodi:guide
       position="1.1650391e-05,32.000026"
       orientation="32,0"
       id="guide4157" />
    <sodipodi:guide
       position="1.1650391e-05,2.6367188e-05"
       orientation="0,32"
       id="guide4159" />
    <sodipodi:guide
       position="32.000012,2.6367188e-05"
       orientation="-32,0"
       id="guide4161" />
    <sodipodi:guide
       position="32.000012,32.000026"
       orientation="0,-32"
       id="guide4163" />
    <sodipodi:guide
       position="2.0000117,30.000026"
       orientation="28,0"
       id="guide4167" />
    <sodipodi:guide
       position="2.0000117,2.0000264"
       orientation="0,28"
       id="guide4169" />
    <sodipodi:guide
       position="30.000012,2.0000264"
       orientation="-28,0"
       id="guide4171" />
    <sodipodi:guide
       position="30.000012,30.000026"
       orientation="0,-28"
       id="guide4173" />
    <sodipodi:guide
       position="2.0000117,30.000026"
       orientation="28,0"
       id="guide4181" />
    <sodipodi:guide
       position="2.0000117,2.0000264"
       orientation="0,14"
       id="guide4183" />
    <sodipodi:guide
       position="16.000012,2.0000264"
       orientation="-28,0"
       id="guide4185" />
    <sodipodi:guide
       position="16.000012,30.000026"
       orientation="0,-14"
       id="guide4187" />
    <sodipodi:guide
       position="9.0000117,23.000026"
       orientation="14,0"
       id="guide4193" />
    <sodipodi:guide
       position="9.0000117,9.0000264"
       orientation="0,14.000031"
       id="guide4195" />
    <sodipodi:guide
       position="23.000042,9.0000264"
       orientation="-14,0"
       id="guide4197" />
    <sodipodi:guide
       position="23.000042,23.000026"
       orientation="0,-14.000031"
       id="guide4199" />
  </sodipodi:namedview>
  <metadata
     id="metadata5458">
    <rdf:RDF>
      <cc:Work
         rdf:about="">
        <dc:format>image/svg+xml</dc:format>
        <dc:type
           rdf:resource="http://purl.org/dc/dcmitype/StillImage" />
        <dc:title />
      </cc:Work>
    </rdf:RDF>
  </metadata>
  <g
     inkscape:label="Capa 1"
     inkscape:groupmode="layer"
     id="layer1"
     transform="translate(-384.57143,-499.798)">
    <g
       style="display:inline;enable-background:new"
       id="g4238"
       transform="translate(225.81911,462.44565)">
      <g
         style="display:inline"
         id="layer1-8"
         transform="matrix(0.22655187,0,0,0.22655187,106.94841,54.31088)">
        <g
           style="display:none"
           id="layer6" />
        <g
           id="g4027" />
        <g
           id="g4061" />
        <g
           id="g3751" />
        <g
           id="g3782" />
        <g
           id="g3725" />
        <g
           id="g4370"
           transform="matrix(4.4140002,0,0,4.4140002,59.275211,39.357303)">
          <g
             id="g4182"
             transform="translate(-20,-25.000001)">
            <g
               id="g4191"
               transform="matrix(1.0420011,0,0,1.0420011,-24.560361,-1.7527763)">
              <rect
                 ry="3.6010649"
                 y="0.91379207"
                 x="79.592392"
                 height="45.922417"
                 width="46.065212"
                 id="rect4204"
                 style="opacity:1;fill:url(#linearGradient4212);fill-opacity:1;stroke:none;stroke-width:0.60000002;stroke-linecap:round;stroke-linejoin:round;stroke-miterlimit:4;stroke-dasharray:none;stroke-dashoffset:0;stroke-opacity:1" />
            </g>
          </g>
          <g
             transform="matrix(1.2631579,0,0,1.2631579,32.059211,-32.19079)"
             style="display:inline;enable-background:new"
             id="g4219">
            <path
               style="fill:#cdebfd;fill-opacity:1"
               inkscape:connector-curvature="0"
               id="path6190_15_"
               d="m 28.694,10.506 c -3.532,0.052 -7.355,0.828 -9.864,4.579 -2.747,4.108 -1.427,9.288 1.413,10.727 2.702,1.531 4.391,-0.343 3.757,-1.812 -0.397,1.406 -2.444,1.344 -2.917,-0.912 -0.453,-3.327 1.742,-5.696 4.845,-6.035 5.24,-0.572 9.33,4.624 9.749,9.522 C 36.259,34.313 31.634,40.563 24.618,43 L 42,43 c 0.552,0 1,-0.448 1,-1 l 0,-24.25 c -1.158,-1.314 -2.698,-2.82 -4.234,-3.842 -2.988,-1.99 -6.54,-3.454 -10.072,-3.402 z" />
            <path
               style="fill:#cdebfd;fill-opacity:1"
               inkscape:connector-curvature="0"
               id="path6167_15_"
               d="M 19.733,36.942 C 23.265,36.89 27.281,35.65 29.596,31.926 31.912,28.298 30.971,23.248 28.537,21.443 26.146,19.65 23.353,22.031 24,24 c 0.587,-1.359 2.728,-2.016 3.336,0.367 0.453,3.327 -1.751,5.831 -4.854,6.17 -5.24,0.572 -9.848,-3.784 -10.161,-9.565 C 11.817,11.643 17.697,6.125 24,5 L 6,5 C 5.448,5 5,5.448 5,6 l 0,23.792 c 1.158,1.314 3.108,2.868 4.644,3.891 2.988,1.989 6.557,3.311 10.089,3.259 z" />
          </g>
        </g>
      </g>
    </g>
  </g>
</svg>
